X: 555
T: Polska efter Pers Olle
S: efter Pers Olle
O: Dalarna, Rättvik
R: Polska
Z: Håkan Lidén, 2008-09-28
M: 3/4
L: 1/8
K: C
GE/G/ c2 c>d | cB/c/ d2 d2 | ed c2 cB/c/ | dB G2 G2 | GE/G/ c2 c>d | 
cB/c/ d2 d2 | ed c2 cB/c/ | dB G2 G>B | dB/d/ c4 :: cB/c/ a2 f>f | 
aa g2 e2 | f/e/f/g/ a>g f>e | d>c B/c/d/B/ G2 | GG a2 f>f | 
aa g2 e2 | f/e/f/g/ a>g f>e | d>c B/c/d/B/ G>B | dB/d/ c4 |]
(:musicend:)

(:music:)
